wilib/img/svg/folha_parda.svg

<svg xmlns="http://www.w3.org/2000/svg" xmlns:xlink="http://www.w3.org/1999/xlink" preserveAspectRatio="none" width="288" height="270" viewBox="0 0 288 270"><defs><path fill="#D0C0B0" d="M268.25 87.2q5.7-23.45 13.15-40.85l6.25-12.7H15.75v236.1h239.4q-5.3-107.45 13.1-182.55z" id="a"/><path fill="#F0E8D0" d="M278.8 43.75l6.25-12.7H13.15V267.1h239.4q-5.3-107.45 13.1-182.5 5.7-23.45 13.15-40.85z" id="b"/><path fill="#D0C0B0" d="M248.6 68.5q5.95-43.7 12.9-65.9H2.6v260.8H242q-5.25-107.45 6.6-194.9z" id="c"/><path fill="#F8F8D8" d="M246 65.9q5.95-43.7 12.9-65.9H0v260.8h239.4q-5.25-107.45 6.6-194.9z" id="d"/></defs><use xlink:href="#a"/><use xlink:href="#b"/><use xlink:href="#c"/><use xlink:href="#d"/></svg>

<svg xmlns="http://www.w3.org/2000/svg" version="1.1" xmlns:xlink="http://www.w3.org/1999/xlink" preserveAspectRatio="none" x="0px" y="0px" width="288px" height="270px" viewBox="0 0 288 270">
<defs>
<g id="gr_bloco_0_Layer0_0_FILL">
<path fill="#D0C0B0" stroke="none" d="
M 268.25 87.2
Q 273.95 63.75 281.4 46.35
L 287.65 33.65 15.75 33.65 15.75 269.75 255.15 269.75
Q 249.85 162.3 268.25 87.2 Z"/>
</g>

<g id="gr_bloco_0_Layer0_1_FILL">
<path fill="#F0E8D0" stroke="none" d="
M 278.8 43.75
L 285.05 31.05 13.15 31.05 13.15 267.1 252.55 267.1
Q 247.25 159.65 265.65 84.6 271.35 61.15 278.8 43.75 Z"/>
</g>

<g id="gr_bloco_0_Layer0_2_FILL">
<path fill="#D0C0B0" stroke="none" d="
M 248.6 68.5
Q 254.55 24.8 261.5 2.6
L 2.6 2.6 2.6 263.4 242 263.4
Q 236.75 155.95 248.6 68.5 Z"/>
</g>

<g id="gr_bloco_0_Layer0_3_FILL">
<path fill="#F8F8D8" stroke="none" d="
M 246 65.9
Q 251.95 22.2 258.9 0
L 0 0 0 260.8 239.4 260.8
Q 234.15 153.35 246 65.9 Z"/>
</g>
</defs>

<g id="bloco" transform="matrix( 1, 0, 0, 1, 0,0) ">
<g transform="matrix( 1, 0, 0, 1, 0,0) ">
<g transform="matrix( 1, 0, 0, 1, 0,0) ">
<use xlink:href="#gr_bloco_0_Layer0_0_FILL"/>
</g>

<g transform="matrix( 1, 0, 0, 1, 0,0) ">
<use xlink:href="#gr_bloco_0_Layer0_1_FILL"/>
</g>

<g transform="matrix( 1, 0, 0, 1, 0,0) ">
<use xlink:href="#gr_bloco_0_Layer0_2_FILL"/>
</g>

<g transform="matrix( 1, 0, 0, 1, 0,0) ">
<use xlink:href="#gr_bloco_0_Layer0_3_FILL"/>
</g>
</g>
</g>
</svg>
